X: 40197
T: Tin Key, The
R: jig
M: 6/8
K: Dmixolydian
FFF GFG|ABd c2A|BBB BAG|FAD CDE|
FFF GFG|ABd cde|=fgf ecG|dcB AGE:|
|:Ddd cdd|edd cdd|Ddd cdd|GAB cGE|
Ddd cdd|edd cde|=fgf ecG|dcB AGE:|

